dist/img/logo/logo_footer.svg

<svg width="180" height="52" viewBox="0 0 180 52" fill="none" xmlns="http://www.w3.org/2000/svg">
<path d="M97.0876 4.37701C97.0876 3.9644 97.2618 3.73579 97.7136 3.73579H103.272L104.05 0H96.3037C93.0865 0 91.5242 1.36607 91.5242 4.27665V5.12417H87.9531V9.81342H91.5242V19.3202H97.0821V9.81342H103.315L104.273 5.12417H97.0821V4.37701H97.0876ZM111.481 7.16491H111.051L111.481 5.12974H105.95V19.3258H111.481V9.819H118.9L119.858 5.15762H115.509C113.141 5.15762 111.938 5.90478 111.486 7.16491H111.481ZM133.974 7.44371H133.473C132.395 5.82114 130.577 4.8175 128.067 4.8175C123.19 4.8175 121.051 7.0311 121.051 12.2389C121.051 17.4467 123.19 19.6324 128.067 19.6324C130.582 19.6324 132.395 18.6288 133.473 17.0062H133.979L133.473 19.3258H139.004V5.12974H133.473L133.974 7.44371ZM133.473 15.0658H130.103C127.79 15.0658 126.783 14.0845 126.783 12.2054C126.783 10.3264 127.784 9.6573 130.103 9.6573H133.473V15.0658ZM152.58 4.8175C150.016 4.8175 148.53 5.7152 147.55 7.13146H147.12L147.55 5.12417H142.02V19.3202H147.55V9.35063H150.697C152.107 9.35063 152.531 10.1257 152.531 11.0513V19.3202H158.062V10.0755C158.062 6.23933 155.999 4.82307 152.58 4.82307V4.8175ZM179.064 5.12417H171.671L166.941 10.5327H166.467V0H160.931V19.3202H166.467V12.9024H166.941L172.101 19.3202H179.994L172.776 11.6423L179.064 5.12974V5.12417Z" fill="white"/>
<path d="M100.381 28.113L100.882 30.427H100.381C99.3031 28.8044 97.4849 27.8008 94.9754 27.8008C90.0979 27.8008 87.9585 30.0144 87.9585 35.2222C87.9585 40.43 90.0979 42.6157 94.9754 42.6157C97.4903 42.6157 99.3031 41.6121 100.381 39.9895H100.887L100.381 42.309H105.917V28.113H100.381ZM100.381 38.0547H97.0113C94.6977 38.0547 93.6961 37.0734 93.6961 35.1943C93.6961 33.3153 94.6977 32.6462 97.0113 32.6462H100.381V38.0547Z" fill="white"/>
<path d="M119.298 38.077H116.157C114.747 38.077 114.322 37.3075 114.322 36.3763V28.113H108.792V37.3577C108.792 41.1938 110.855 42.6101 114.273 42.6101C116.837 42.6101 118.323 41.7068 119.303 40.2906H119.733L119.303 42.2979H124.834V28.1074H119.303V38.077H119.298Z" fill="white"/>
<path d="M135.639 32.4845H140.441L141.344 28.1075H135.639V24.0093H130.158V28.1019H126.538V32.4789H130.109V38.8186C130.109 41.0322 131.54 42.2924 133.881 42.2924H140.495L141.399 37.9153H135.639V32.4845Z" fill="white"/>
<path d="M151.704 27.8008C145.471 27.8008 142.651 30.1482 142.651 35.2222C142.651 40.2962 145.492 42.6157 151.704 42.6157C157.915 42.6157 160.784 40.2962 160.784 35.2222C160.784 30.1482 157.964 27.8008 151.704 27.8008ZM151.704 38.6457C149.363 38.6457 148.383 37.6198 148.383 35.2166C148.383 32.8134 149.363 31.7652 151.704 31.7652C154.044 31.7652 155.052 32.7911 155.052 35.2166C155.052 37.6421 154.05 38.6457 151.704 38.6457Z" fill="white"/>
<path d="M60.5879 0.027832C57.6429 0.027832 54.8394 1.31027 52.8688 3.54617L49.7006 7.14814C47.73 9.38962 44.9265 10.6665 41.9815 10.6665H13.9194C6.71744 10.6665 0.881836 16.6437 0.881836 24.0205V29.2562C0.881836 36.6219 6.70655 42.5936 13.8922 42.6103C16.8372 42.6103 19.6407 41.3279 21.6113 39.092L24.7795 35.49C26.7501 33.2485 29.5536 31.9716 32.4986 31.9716H40.4463C43.3914 31.9716 46.1948 33.2485 48.1655 35.49L51.3337 39.092C53.3043 41.3334 56.1077 42.6103 59.0528 42.6103H68.4159L59.0582 31.9661H60.5988C67.8007 31.9661 73.6363 25.9888 73.6363 18.612V13.3763C73.6418 6.0051 67.7844 0.027832 60.5879 0.027832ZM63.2444 18.0321C63.2444 19.8498 61.8073 21.3218 60.0326 21.3218H41.8617C38.9167 21.3218 36.1132 22.6043 34.1426 24.8402L30.9744 28.4422C29.0038 30.6836 26.2003 31.9605 23.2553 31.9605H14.491C12.7163 31.9605 11.2792 30.4885 11.2792 28.6708V24.606C11.2792 22.7883 12.7163 21.3163 14.491 21.3163H32.6184C35.5634 21.3163 38.3669 20.0338 40.3375 17.7979L43.5057 14.196C45.4763 11.9545 48.2798 10.6776 51.2248 10.6776H60.0326C61.8073 10.6776 63.2444 12.1496 63.2444 13.9674V18.0321Z" fill="white"/>
</svg>

<svg width="180" height="52" viewBox="0 0 180 52" fill="none" xmlns="http://www.w3.org/2000/svg"><path d="M97.088 4.377c0-.413.174-.641.626-.641h5.558L104.05 0h-7.746c-3.218 0-4.78 1.366-4.78 4.277v.847h-3.57v4.69h3.57v9.506h5.558V9.813h6.233l.958-4.689h-7.19v-.747h.005zm14.393 2.788h-.43l.43-2.035h-5.531v14.196h5.531V9.819h7.419l.958-4.661h-4.349c-2.368 0-3.571.747-4.023 2.007h-.005zm22.493.279h-.501c-1.078-1.623-2.896-2.627-5.406-2.627-4.877 0-7.016 2.214-7.016 7.422s2.139 7.393 7.016 7.393c2.515 0 4.328-1.003 5.406-2.626h.506l-.506 2.32h5.531V5.13h-5.531l.501 2.314zm-.501 7.622h-3.37c-2.313 0-3.32-.982-3.32-2.86 0-1.88 1.001-2.549 3.32-2.549h3.37v5.409zM152.58 4.817c-2.564 0-4.05.898-5.03 2.314h-.43l.43-2.007h-5.53V19.32h5.53V9.35h3.147c1.41 0 1.834.776 1.834 1.701v8.27h5.531v-9.246c0-3.836-2.063-5.252-5.482-5.252v-.006zm26.484.307h-7.393l-4.73 5.409h-.474V0h-5.536v19.32h5.536v-6.418h.474l5.16 6.418h7.893l-7.218-7.678 6.288-6.512v-.006zm-78.683 22.989l.501 2.314h-.501c-1.078-1.623-2.896-2.626-5.406-2.626-4.877 0-7.016 2.213-7.016 7.421s2.139 7.394 7.016 7.394c2.515 0 4.328-1.004 5.406-2.627h.506l-.506 2.32h5.536V28.113h-5.536zm0 9.942h-3.37c-2.313 0-3.315-.982-3.315-2.86 0-1.88 1.002-2.549 3.315-2.549h3.37v5.409zm18.917.022h-3.141c-1.41 0-1.835-.77-1.835-1.7v-8.264h-5.53v9.245c0 3.836 2.063 5.252 5.481 5.252 2.564 0 4.05-.903 5.03-2.32h.43l-.43 2.008h5.531v-14.19h-5.531v9.969h-.005zm16.341-5.593h4.802l.903-4.377h-5.705V24.01h-5.481v4.093h-3.62v4.377h3.571v6.34c0 2.213 1.431 3.473 3.772 3.473h6.614l.904-4.377h-5.76v-5.43zm16.065-4.684c-6.233 0-9.053 2.348-9.053 7.422s2.841 7.394 9.053 7.394c6.211 0 9.08-2.32 9.08-7.394s-2.82-7.421-9.08-7.421zm0 10.846c-2.341 0-3.321-1.026-3.321-3.43 0-2.403.98-3.45 3.321-3.45 2.34 0 3.348 1.025 3.348 3.45 0 2.426-1.002 3.43-3.348 3.43zM60.588.028c-2.945 0-5.749 1.282-7.72 3.518l-3.167 3.602c-1.971 2.242-4.775 3.518-7.72 3.518H13.92C6.717 10.666.882 16.645.882 24.02v5.236c0 7.366 5.825 13.338 13.01 13.354 2.945 0 5.749-1.282 7.72-3.518l3.168-3.602c1.97-2.242 4.774-3.518 7.719-3.518h7.947c2.945 0 5.749 1.276 7.72 3.518l3.168 3.602c1.97 2.241 4.774 3.518 7.719 3.518h9.363l-9.358-10.644h1.54c7.203 0 13.038-5.977 13.038-13.354v-5.236C73.642 6.006 67.784.028 60.588.028zm2.656 18.004c0 1.818-1.437 3.29-3.211 3.29H41.862c-2.945 0-5.749 1.282-7.72 3.518l-3.168 3.602c-1.97 2.242-4.774 3.518-7.719 3.518h-8.764c-1.775 0-3.212-1.472-3.212-3.29v-4.064c0-1.818 1.437-3.29 3.212-3.29h18.127c2.945 0 5.749-1.282 7.72-3.518l3.168-3.602c1.97-2.242 4.774-3.518 7.719-3.518h8.808c1.774 0 3.211 1.472 3.211 3.29v4.064z" fill="#fff"/></svg>
